lib/functional/games/finn-the-human.svg

<svg xmlns="http://www.w3.org/2000/svg" fill="none" stroke="currentColor" aria-hidden="true" viewBox="0 0 32 32"><g id="Icon-FinnTheHuman"><g clip-path="url(#clip0_11_3046)"><g id="size=md (32px)"><g id="FinnTheHuman"><path id="Vector" stroke-linecap="round" stroke-linejoin="round" stroke-width="2" d="M21 13H11C8.79086 13 7 14.7909 7 17V18C7 20.2091 8.79086 22 11 22H21C23.2091 22 25 20.2091 25 18V17C25 14.7909 23.2091 13 21 13Z"/><path id="Vector_2" stroke-linecap="round" stroke-linejoin="round" stroke-width="2" d="M3 8C3 7.20435 3.31607 6.44129 3.87868 5.87868C4.44129 5.31607 5.20435 5 6 5C6.79565 5 7.55871 5.31607 8.12132 5.87868C8.68393 6.44129 9 7.20435 9 8H23C23 7.20435 23.3161 6.44129 23.8787 5.87868C24.4413 5.31607 25.2044 5 26 5C26.7956 5 27.5587 5.31607 28.1213 5.87868C28.6839 6.44129 29 7.20435 29 8V18C28.9967 20.1207 28.1528 22.1536 26.6532 23.6532C25.1536 25.1528 23.1207 25.9967 21 26H11C8.87928 25.9967 6.84637 25.1528 5.3468 23.6532C3.84722 22.1536 3.00331 20.1207 3 18V8Z"/><path id="Vector_3" fill="#101828" d="M11.5 19C12.3284 19 13 18.3284 13 17.5C13 16.6716 12.3284 16 11.5 16C10.6716 16 10 16.6716 10 17.5C10 18.3284 10.6716 19 11.5 19Z"/><path id="Vector_4" fill="#101828" d="M20.5 19C21.3284 19 22 18.3284 22 17.5C22 16.6716 21.3284 16 20.5 16C19.6716 16 19 16.6716 19 17.5C19 18.3284 19.6716 19 20.5 19Z"/></g></g></g></g><defs><clipPath id="clip0_11_3046"><rect width="32" height="32" fill="white" rx="5"/></clipPath></defs></svg>

<svg xmlns="http://www.w3.org/2000/svg" fill="none" stroke="currentColor" aria-hidden="true" viewBox="0 0 32 32"><g clip-path="url(#a)"><path stroke-linecap="round" stroke-linejoin="round" stroke-width="2" d="M21 13H11a4 4 0 0 0-4 4v1a4 4 0 0 0 4 4h10a4 4 0 0 0 4-4v-1a4 4 0 0 0-4-4Z"/><path stroke-linecap="round" stroke-linejoin="round" stroke-width="2" d="M3 8a3 3 0 1 1 6 0h14a3 3 0 0 1 6 0v10a8.012 8.012 0 0 1-8 8H11a8.012 8.012 0 0 1-8-8V8Z"/><path fill="#101828" d="M11.5 19a1.5 1.5 0 1 0 0-3 1.5 1.5 0 0 0 0 3Zm9 0a1.5 1.5 0 1 0 0-3 1.5 1.5 0 0 0 0 3Z"/></g><defs><clipPath id="a"><rect width="32" height="32" fill="#fff" rx="5"/></clipPath></defs></svg>
